**kern	**kern
*staff1	*staff2
*clefG2	*clefG2
*k[b-]	*k[b-]
*M2/4	*M2/4
*F:	*F:
4aa 4ccc	4r
=1	=1
8ff'L 8aa'	2f
8cc'J 8ff'	.
8ff'L 8aa'	.
8aa'J 8ccc'	.
=2	=2
(4gg 4bb-	(4c 4e 4g
4ff) 4aa	4f)
=3	=3
8ee'L 8gg'	4c
8dd'J 8ff'	.
8cc'L 8ee'	4c
8dd'J 8ff'	.
=4	=4
8ee 8gg	8c
8r	8r
4aa 4ccc	4r
=5	=5
8ff'L 8aa'	2f
8cc'J 8ff'	.
8ff'L 8aa'	.
8aa'J 8ccc'	.
=6	=6
(4gg 4bb-	(4c 4e 4g
4ff) 4aa	4f) 4a
=7	=7
8ddL 8gg	8B-L
8ddJ 8gg	8B-J
(8b-L 8ee	8cL
16b-L 16dd	8cJ
16eeJJ)	.
*	*clefF4
=8	=8
8a 8ff	4F
8r	.
*-	*-
